svgs/sharp-light/wind.svg

<svg xmlns="http://www.w3.org/2000/svg" viewBox="0 0 512 512"><!--! Font Awesome Pro 6.6.0 by @fontawesome - https://fontawesome.com License - https://fontawesome.com/license (Commercial License) Copyright 2024 Fonticons, Inc. --><path d="M288 0l0 32 16 0 64 0c26.5 0 48 21.5 48 48s-21.5 48-48 48L16 128 0 128l0 32 16 0 352 0c44.2 0 80-35.8 80-80s-35.8-80-80-80L304 0 288 0zm64 416l16 0 56 0c48.6 0 88-39.4 88-88s-39.4-88-88-88L16 240 0 240l0 32 16 0 408 0c30.9 0 56 25.1 56 56s-25.1 56-56 56l-56 0-16 0 0 32zM112 512l64 0c44.2 0 80-35.8 80-80s-35.8-80-80-80L16 352 0 352l0 32 16 0 160 0c26.5 0 48 21.5 48 48s-21.5 48-48 48l-64 0-16 0 0 32 16 0z"/></svg>

<svg xmlns="http://www.w3.org/2000/svg" viewBox="0 0 512 512"><!--! Font Awesome Pro 6.4.2 by @fontawesome - https://fontawesome.com License - https://fontawesome.com/license (Commercial License) Copyright 2023 Fonticons, Inc. --><path d="M288 0V32h16 64c26.5 0 48 21.5 48 48s-21.5 48-48 48H16 0v32H16 368c44.2 0 80-35.8 80-80s-35.8-80-80-80H304 288zm64 416h16 56c48.6 0 88-39.4 88-88s-39.4-88-88-88H16 0v32H16 424c30.9 0 56 25.1 56 56s-25.1 56-56 56H368 352v32zM112 512h64c44.2 0 80-35.8 80-80s-35.8-80-80-80H16 0v32H16 176c26.5 0 48 21.5 48 48s-21.5 48-48 48H112 96v32h16z"/></svg>
